X:2284
T:Buisson Fleuri
M:3/4
L:1/4
K:C
G|cde|d3|cAB|AG2|\
d>ef|g>ag|fde|dc:|
g|f/g/ fd|A2f|e/f/ec|Gce|\
d/e/fd|ABG|c/e/g2-|g^fg|
a/g/ fd|A2f|e/f/ec|Gce|\
d/e/fd|ABG|c3|c2|]


